X:1
T:I Will Say Goodbye
T:I Will Say Goodbye 
T:
C:Michel Legrand
Z:All Rights Reserved
L:1/8
M:4/4
K:Eb
V:1 treble nm="Piano" snm="Pno."
%%MIDI program 0
%%MIDI control 7 100
%%MIDI control 10 64
V:1
"Fm7" z4"Bb7b9" z4 |"Ebmaj7" z4"Abmaj7" z4 |"Dm7b5" z4"G7" z4 |"Cm" z4"C7" GABc | %4
w: |||I will say good-|
"Fm7" A4"Bb7" FGAB |"Ebmaj7" G4"Abmaj7" EF_GA |"Dm7b5" F4"G7" DEFG |"Cm" E4 GABc | %8
w: bye, I will walk a-|way; I will speak the|words you would have me|say. I will walk a-|
"Fm7" A4"Bb7" FGAB |"Ebmaj7" G4"Abmaj7" EFGA |"Fm7" F4"Bb7b9" DEFG |"Eb" E4 Bcde | %12
w: way, I will walk a-|lone, I will not look|back, for I'd turn to|stone! More than just fare-|
"Ab/Eb" c2"Eb" Bc de"Ab/Eb" c2 |"Eb" Bcde"Ab/Eb" cBcd |"Cm" e4 cdef |"Am7b5" d4 cdef |"D7" d8- | %17
w: well, more than just good- bye,|it will be as if we'd nev- er|met! You would hear the|words you would have me|say.|
"Am9/D" d4"D7" cd=e^f ||[K:G]"Bm7" d4"E7b9" Bcde |"Am" c4 ABcd |"F#m7b5" B4"B7" A3 F | %21
w: _ You would have me|say, you are not my|love, You are not my|love, oh, my|
"Em" G4 B^cde |"C#m7b5" ^c4"F#7" ^ABcd |"Bm7b5" B4"E7" ^G^AB^c |"Bb7b5" _B4"Eb7b9" =G=A_Bc | %25
w: love. I will say good-|bye, I will close the|door, I will close my|eyes, I will love no|
"Am7b5" !fermata!A8 | %26
w: more.|

